dist/svg/minus-square-o.svg

<!-- Generated by Trend Micro Style Portal -->
<svg version="1.1" xmlns="http://www.w3.org/2000/svg" width="16" height="16" viewBox="0 0 16 16">
  <title>minus-square-o</title>
  <path fill="rgb(34,34,34)" d="M12 9h-8v-2h8v2zM15 2v12c0 0.552-0.448 1-1 1v0h-12c-0.552 0-1-0.448-1-1v0-12c0-0.552 0.448-1 1-1v0h12c0.552 0 1 0.448 1 1v0zM14 2h-12v12h12v-12z"></path>
</svg>

<svg width="16" height="16" viewBox="0 0 16 16" fill="rgb(34, 34, 34)" xmlns="http://www.w3.org/2000/svg"><title>minus-square-o</title><path d="M12 9H4V7H12V9ZM15 2V14C15 14.552 14.552 15 14 15H2C1.448 15 1 14.552 1 14V2C1 1.448 1.448 1 2 1H14C14.552 1 15 1.448 15 2ZM14 2H2V14H14V2Z" fill="rgb(34, 34, 34)" fill-opacity="1.00"/></svg>
